icons/circle-chevron-left-outline.svg

<svg xmlns="http://www.w3.org/2000/svg" width="24" height="24" viewBox="0 0 24 24">
  <path d="M12,1 C18.0751322,1 23,5.92486775 23,12 C23,18.0751322 18.0751322,23 12,23 C5.92486775,23 1,18.0751322 1,12 C1,5.92486775 5.92486775,1 12,1 Z M12,3 C7.02943725,3 3,7.02943725 3,12 C3,16.9705627 7.02943725,21 12,21 C16.9705627,21 21,16.9705627 21,12 C21,7.02943725 16.9705627,3 12,3 Z M14.7071068,7.29289322 C15.0675907,7.65337718 15.0953203,8.22060824 14.7902954,8.61289944 L14.7071068,8.70710678 L11.415,12 L14.7071068,15.2928932 C15.0675907,15.6533772 15.0953203,16.2206082 14.7902954,16.6128994 L14.7071068,16.7071068 C14.3466228,17.0675907 13.7793918,17.0953203 13.3871006,16.7902954 L13.2928932,16.7071068 L9.29289322,12.7071068 C8.93240926,12.3466228 8.90467972,11.7793918 9.20970461,11.3871006 L9.29289322,11.2928932 L13.2928932,7.29289322 C13.6834175,6.90236893 14.3165825,6.90236893 14.7071068,7.29289322 Z"/>
</svg>

<svg xmlns="http://www.w3.org/2000/svg" viewBox="0 0 24 24">
  <path d="M12 1a11 11 0 1 1 0 22 11 11 0 0 1 0-22zm0 2a9 9 0 1 0 0 18 9 9 0 0 0 0-18zm2.7 4.3a1 1 0 0 1 .09 1.31l-.08.1L11.4 12l3.3 3.3a1 1 0 0 1 .08 1.31l-.08.1a1 1 0 0 1-1.32.08l-.1-.08-4-4a1 1 0 0 1-.08-1.32l.08-.1 4-4a1 1 0 0 1 1.42 0z"/>
</svg>
